dist/assets/img/pay/1.svg

<svg width="80" height="70" viewBox="0 0 80 70" fill="none" xmlns="http://www.w3.org/2000/svg">
<g opacity="0.9">
<path opacity="0.9" fill-rule="evenodd" clip-rule="evenodd" d="M35.498 33.0073H54.4501V65.5538H35.498V33.0073Z" fill="#FF5F00"/>
<path opacity="0.9" fill-rule="evenodd" clip-rule="evenodd" d="M36.7399 49.2821C36.7399 42.6811 39.9672 36.7991 44.9799 33.0084C41.3406 30.2635 36.6712 28.5642 31.6585 28.5642C19.7104 28.5642 10.0283 37.8448 10.0283 49.2821C10.0283 60.7194 19.7104 70 31.6585 70C36.7399 70 41.3406 68.3007 44.9799 65.5558C39.9672 61.7651 36.7399 55.8831 36.7399 49.2821Z" fill="#EB001B"/>
<path opacity="0.9" fill-rule="evenodd" clip-rule="evenodd" d="M79.9998 49.2821C79.9998 60.7194 70.3177 70 58.3696 70C53.2882 70 48.6875 68.3007 45.0482 65.5558C50.0609 61.7651 53.2882 55.8831 53.2882 49.2821C53.2882 42.6811 50.0609 36.7991 44.9795 33.0084C48.6875 30.2635 53.3569 28.5642 58.3696 28.5642C70.3177 28.5642 79.9998 37.8448 79.9998 49.2821Z" fill="#F79E1B"/>
<path opacity="0.9" d="M39.4836 0.392137L34.1276 24.1164H27.6729L33.0976 0.392137H39.4836ZM66.6758 15.6855L70.0405 6.79704L71.9632 15.7508H66.6758V15.6855ZM73.8859 24.1164H79.86L74.6413 0.392137H69.1479C67.9119 0.392137 66.8819 1.0457 66.4012 2.15675L56.7191 24.1164H63.5172L64.8218 20.5872H73.0619L73.8859 24.1164ZM57.0624 16.339C57.1311 10.0648 47.9297 9.73806 47.9984 6.92775C47.9984 6.07812 48.8224 5.16314 50.7451 4.96707C51.7064 4.83635 54.2471 4.771 57.1311 6.01276L58.2298 1.0457C56.6504 0.457493 54.6591 0 52.1871 0C45.801 0 41.3377 3.20245 41.269 7.84274C41.2003 11.2413 44.4963 13.2019 46.8997 14.313C49.3717 15.4894 50.2644 16.2737 50.2644 17.254C50.2644 18.8879 48.2044 19.5415 46.419 19.6068C43.1917 19.6722 41.269 18.7572 39.7583 18.1036L38.591 23.3321C40.1016 23.9857 42.8483 24.5739 45.7324 24.5739C52.5991 24.5086 56.9938 21.3061 57.0624 16.339ZM30.3509 0.392137L19.8448 24.1164H13.0468L7.82806 5.16313C7.55339 3.98672 7.27872 3.59459 6.38605 3.07174C4.8067 2.28746 2.26602 1.50319 0 1.0457L0.137334 0.392137H11.1241C12.5661 0.392137 13.7334 1.30712 14.0768 2.81031L16.8235 16.5351L23.5528 0.392137H30.3509Z" fill="#2A2A6C"/>
</g>
</svg>

<svg width="80" height="70" fill="none" xmlns="http://www.w3.org/2000/svg"><g opacity=".9"><path opacity=".9" fill-rule="evenodd" clip-rule="evenodd" d="M35.498 33.007H54.45v32.547H35.498V33.007z" fill="#FF5F00"/><path opacity=".9" fill-rule="evenodd" clip-rule="evenodd" d="M36.74 49.282c0-6.6 3.227-12.483 8.24-16.274a22.194 22.194 0 00-13.321-4.444c-11.949 0-21.63 9.28-21.63 20.718C10.028 60.72 19.71 70 31.658 70c5.08 0 9.682-1.7 13.32-4.444-5.012-3.79-8.24-9.673-8.24-16.274z" fill="#EB001B"/><path opacity=".9" fill-rule="evenodd" clip-rule="evenodd" d="M80 49.282C80 60.72 70.318 70 58.37 70a22.04 22.04 0 01-13.322-4.444c5.013-3.79 8.24-9.673 8.24-16.274 0-6.6-3.227-12.483-8.308-16.274 3.708-2.745 8.377-4.444 13.39-4.444 11.948 0 21.63 9.28 21.63 20.718z" fill="#F79E1B"/><path opacity=".9" d="M39.484.392l-5.356 23.724h-6.455L33.098.392h6.386zm27.192 15.293l3.364-8.888 1.923 8.954h-5.287v-.066zm7.21 8.431h5.974L74.641.392h-5.493c-1.236 0-2.266.654-2.747 1.765l-9.682 21.96h6.798l1.305-3.53h8.24l.824 3.53zM57.062 16.34c.07-6.274-9.132-6.6-9.064-9.411 0-.85.824-1.765 2.747-1.96.961-.132 3.502-.197 6.386 1.045l1.099-4.967C56.65.457 54.66 0 52.187 0c-6.386 0-10.85 3.202-10.918 7.843-.069 3.398 3.227 5.359 5.63 6.47 2.473 1.176 3.365 1.96 3.365 2.941 0 1.634-2.06 2.287-3.845 2.353-3.227.065-5.15-.85-6.66-1.503l-1.168 5.228c1.51.654 4.257 1.242 7.141 1.242 6.867-.065 11.262-3.268 11.33-8.235zM30.351.392L19.845 24.116h-6.798L7.828 5.163c-.275-1.176-.55-1.568-1.442-2.091C4.806 2.287 2.266 1.503 0 1.046L.137.392h10.987c1.442 0 2.61.915 2.953 2.418l2.746 13.725L23.553.392h6.798z" fill="#2A2A6C"/></g></svg>
